X:13
T:Rosebud of Allenvale
T:Rose of Sharon
R:Waltz
O:?
M:3/4
C:Trad.-Ashley MacIsaac
K:A
(e2 d2)|"A"(c3 d)c2|"E"(B2 c2) B2|"A"(A6|A2) (B2 c2)|"D"(d2 e2) f2|
"A"e((A A2) c2)|"E"(B6|B2) (e2 d2)|"A"(c4 B2)|A2 B2 c2|"D"(d4 e2)|
f2 g2 a2|"A"e(A A2) dE|"E"c4 (BG)|"A"(A6|A2) (c2 d2)|
"A7"e2 f2 =g(f/2g/2|f3) (c e2)|"D"(d6|d6)|"B7"f2 g2 a(g/2a/2|g4) (f^d)|
"E"(e6|e2) f2 g2|"A"((3agf e2) c2|A(G G2) =G2|"D"F2 B2 d2|f3 (a g)f|
"A"e(A A2) dE|"E"c4 (BG)|"A"(A6|A2):||
